X:57
M:2/4
L:1/8
K:G
|: gbge | fafd | egdB | cecA | gbge | fafd | eg (f/g/a/f/) | g2 G2 :|

